X:1020
T:Jonesey's Jig
C:Nigel Gatherer
Z:Nigel Gatherer
M:6/8
L:1/8
K:D
dAF GFG | Ade fef | gfg afd | Bcd ecA |
dAF GFG | Ade fef | gfg afd | cBc d3 :|
fef gfg | afd cBc | dAF GFG | AFD E3 | 
DFA GBd | Ace def | gfg afd | cBc d3 :|
<end>
<start>
